svg/fluentui-system-icons/ic_fluent_read_aloud_16_regular.svg

<svg width="16" height="16" viewBox="0 0 16 16" fill="none" xmlns="http://www.w3.org/2000/svg">
<path d="M10.0319 1.32456C10.1288 1.06601 10.417 0.935013 10.6756 1.03197L10.6769 1.03245L10.6786 1.03308L10.683 1.03477L10.6961 1.03992C10.7067 1.04414 10.7211 1.04996 10.7389 1.05747C10.7746 1.07248 10.8242 1.09423 10.8858 1.12338C11.0089 1.18163 11.1802 1.2696 11.3836 1.39248C11.79 1.63798 12.3275 2.02474 12.8641 2.59492C13.9455 3.74392 15 5.6144 15 8.50007C15 8.7762 14.7761 9.00005 14.5 9.00005C14.2239 9.00005 14 8.7762 14 8.50007C14 5.88573 13.0545 4.25623 12.1359 3.28025C11.6726 2.78795 11.2101 2.45597 10.8665 2.24836C10.6949 2.14468 10.5537 2.0725 10.4581 2.02724C10.4103 2.00463 10.374 1.98879 10.351 1.97914C10.3396 1.97432 10.3315 1.97105 10.327 1.96926L10.324 1.96807L10.323 1.9677C10.0655 1.87018 9.93512 1.5826 10.0319 1.32456ZM6.96432 3.31458C6.88839 3.12476 6.70454 3.00029 6.50009 3.00029C6.29564 3.00029 6.11178 3.12476 6.03585 3.31458L2.03589 13.3142C1.93334 13.5706 2.05805 13.8616 2.31443 13.9641C2.57082 14.0667 2.86181 13.942 2.96436 13.6856L4.03863 11H8.96154L10.0358 13.6856C10.1384 13.942 10.4293 14.0667 10.6857 13.9641C10.9421 13.8616 11.0668 13.5706 10.9643 13.3142L6.96432 3.31458ZM8.56155 10H4.43862L6.50009 4.84651L8.56155 10ZM10.2236 3.55304C9.97664 3.42955 9.67631 3.52966 9.55282 3.77664C9.42964 4.02298 9.52892 4.3224 9.77451 4.44648L9.78435 4.45171C9.79397 4.45692 9.81021 4.46593 9.83212 4.47884C9.87601 4.5047 9.94228 4.546 10.0235 4.60354C10.1865 4.71901 10.4064 4.89748 10.6263 5.14488C11.0624 5.63546 11.5 6.39654 11.5 7.5001C11.5 7.77624 11.7239 8.00008 12 8.00008C12.2761 8.00008 12.5 7.77624 12.5 7.5001C12.5 6.10376 11.9376 5.11491 11.3737 4.48054C11.0936 4.16546 10.8135 3.93769 10.6015 3.78755C10.4953 3.71228 10.4053 3.65593 10.3398 3.61734C10.307 3.59802 10.2803 3.58311 10.2606 3.57245L10.2365 3.55962L10.2286 3.55556L10.2257 3.55411L10.2246 3.55353C10.2246 3.55353 10.383 3.64326 10.2236 3.55304ZM9.77451 4.44648L9.77601 4.44723Z" fill="#212121"/>
</svg>

<svg xmlns="http://www.w3.org/2000/svg" width="16" height="16"><path d="M10.032 1.325a.5.5 0 0 1 .644-.293l.003.001.004.002.013.005a2.246 2.246 0 0 1 .19.083c.123.059.294.147.498.27.406.245.944.632 1.48 1.202C13.945 3.744 15 5.615 15 8.5a.5.5 0 0 1-1 0c0-2.614-.945-4.244-1.864-5.22a6.067 6.067 0 0 0-1.27-1.032 4.626 4.626 0 0 0-.539-.279h-.003l-.001-.001a.5.5 0 0 1-.291-.643Zm-3.068 1.99a.5.5 0 0 0-.928 0l-4 10a.5.5 0 1 0 .928.37L4.04 11h4.923l1.074 2.686a.5.5 0 1 0 .928-.372l-4-10ZM8.562 10H4.439L6.5 4.847 8.562 10Zm1.662-6.447a.5.5 0 0 0-.45.893l.01.006.048.027a3.597 3.597 0 0 1 .794.666c.436.49.874 1.252.874 2.355a.5.5 0 0 0 1 0c0-1.396-.562-2.385-1.126-3.02a4.596 4.596 0 0 0-1.034-.863 2.529 2.529 0 0 0-.08-.045l-.024-.012-.007-.004-.003-.002h-.001s.158.09-.001-.001Zm-.45.893.002.001Z"/></svg>
